X:1
T:Cripple Creek
C:Traditional Appalachian
M:4/4
L:1/8
Q:1/4=116
K:A
|: A2 A2 E2 A2 | A2 G2 E4 | A2 A2 E2 G2 | E8 |
   A2 A2 E2 A2 | A2 c2 e4 | d2 c2 A2 G2 | A8 :|
|: e4 e2 d2 | c4 A4 | e4 e2 d2 | e4 d2 c2 |
   A4 A2 G2 | E4 E4 | A2 G2 E2 G2 | A8 :|
